X:1
T:Title
%%score { ( 1 3 5 ) | ( 2 4 ) }
L:1/8
M:6/8
K:Eb
V:1 treble nm="Grand Piano"
V:3 treble 
V:5 treble 
V:2 bass 
V:4 bass 
V:1
 z3 z2[Q:1/4=87] [GB] | [GB][Ac][GB] EFG | [GB][GB][Ac] [GB]2 [GB] | ccc [Ac][GB][EG] | %4
 [DF]3- [DF]2 [DB] | BcB EFG | [GB][GB][Ac] [GB]2 G/G/ |[M:13/16] FBddd3/2c | %8
[M:3/4] B-[FB-] [GB-] [AB]3 |[M:1/8] B/B/ |[M:3/4] [Ge][Ge] [Ge][GB] [Ac][B_d] | c6 | %12
 cc c[=Ac] [Ad][Ae] | f6 | [GB][EG] [FA] [GB]2 [GB]/[GB]/ | %15
[M:29/32] [Ge]/-<[Ge]/[GB]/-<[GB]/[G=B]/-<[GB]/[EAc]/4-[EAc]/4-[EAc]/4-[EAc]/4-[EAc]/4-[EAc]/4-[EAc]/4-[EAc]/4-[EAc]/-<[EAc]/ z/ [E_Gc]3/4 | %16
[M:7/8] [EGB][GB]3/2-[G,-GB]/4G,/4- G,/-[G,B,-E-G-]/4[B,EG]/4-[B,EG] z2 | %17
[M:5/8] [G,E]-[G,E]- [G,E]3 |] %18
V:2
 z3 z2 [E,E] | [E,E][E,E][E,E] [E,G,][E,A,E][E,B,E] | [E,E][E,E][E,E] [E,E]2 [E,E] | %3
 [A,EA][A,EA][A,EA][K:bass] [E,E][E,E][E,B,] | [B,,B,]3- [B,,B,]2 [B,,A,] | %5
 [E,G,E][E,A,E][E,G,E] [E,G,][E,A,E][E,B,E] | [E,E][E,E][E,E] [E,E]2 [E,B,E]/[E,B,E]/ | %7
[M:13/16] [F,B,D][F,B,D][F,B,F][F,B,F][F,B,F]3/2[F,=A,E] |[M:3/4] z[K:treble] D E F3 | %9
[M:1/8] [B,A]/[B,A]/ |[M:3/4][K:bass] [E,B,][E,B,] [E,B,][E,E] [E,E][K:treble][G,E] | %11
 [A,EA][A,E] [A,E] [A,E]2 [A,EA] | [A,EA][A,EA] [A,EA][K:bass][F,E] [F,E][F,C] | %13
 [B,DA][B,D] [B,D] [B,D]2 [B,A] | [E,B,][E,B,] [E,B,] [E,B,]2 [E,B,]/[E,B,]/ | %15
[M:29/32] [E,B,]/-<[E,B,]/[E,E]/-<[E,E]/[E,E]/-<[E,E]/A,/4-A,/4-A,/4-A,/4-A,/4-A,/4-A,/4-A,/4-A,/-<A,/ z/ =A,,3/4 | %16
[M:7/8] B,,B,,3/2B,,B,,B,,3/2 z |[M:5/8] E,-E,- E,3 |] %18
V:3
 x6 | x6 | x6 | x6 | x6 | x6 | x6 |[M:13/16] x13/2 |[M:3/4] .[B,D]2 z2 z2 |[M:1/8] x |[M:3/4] x6 | %11
 z A A A2 c | x6 | z A A A2 B | x6 | %15
[M:29/32] z/4 z/4 z/4 z/4 z/4 z/4 z/4 z/4 z/4 z/4 z/4 z/4 z/4 z/4 z/4 z/4 z/4 z/4 z/4 z/4 z/4 z/4 z/ [CFd]3/4 z/ | %16
[M:7/8] z E3/2.E3/2 z/ [B,EG]/- [B,EG]-[B,EG]/4 z/4 z/ |[M:5/8] x5 |] %18
V:4
 x6 | x6 | x6 | x3[K:bass] x3 | x6 | x6 | x6 |[M:13/16] x13/2 |[M:3/4] B,,6[K:treble] |[M:1/8] x | %10
[M:3/4][K:bass] x5[K:treble] x | x6 | x3[K:bass] x3 | x6 | x6 | %15
[M:29/32] z/4 z/4 z/4 z/4 z/4 z/4 z/4 z/4 z/4 z/4 z/4 z/4 z/4 z/4 z/4 z/4 z/4 z/4 z/4 z/4 z/4 z/4 z/ A,,3/4 z/ | %16
[M:7/8] z z z z z2 B,,- |[M:5/8] B,,3/4 z/4 z z z2 |] %18
V:5
 x6 | x6 | x6 | x6 | x6 | x6 | x6 |[M:13/16] x13/2 |[M:3/4] x6 |[M:1/8] x |[M:3/4] x6 | x6 | x6 | %13
 x6 | x6 |[M:29/32] x29/4 |[M:7/8] z z z z z2 [A,DF]- |[M:5/8] [A,DF]3/4 z/4 z z z2 |] %18

